!!!!SEGMENT: pl-sa--22-a-i-22--006_haydn-joseph--requiem-agnus.krn
!!!cenid: 18xx:356
!!!COM: Haydn, Joseph
!!!COM-rismID: pe55803
!!!CDT: 1732/03/31-1809/05/31
!!!CNT: Austrian
!!!OPR: Requiem
!!!OTL: Agnus
!!!OMV: 006
!!!PDT: 1814
!!!AGN: Sacred; Requiem
!!!SMS-siglum: PL-SA
!!!SMS-shelfmark: 22/A I 22
!!!SMS-shelfwork: 001-006 M
!!!SMS-variant: Organo: PL-SA 22/A I 22:19
!!!SMS-altvar: Organo: PL-SA 22/A I 22:23
!!!NIFC-rismSourceID: 1001036473
!!!NIFC-rismChildID: 1001036473
!!!NIFC-islandoraID: none
!!!URL-pdf-islandora:
!!!URL-scan: https://bc.bdsandomierz.pl/dlibra/publication/1255/edition/1223/content @EN{Scan in the Sandomierz Diocese Digital Library} @PL{Skany w portalu Cyfrowa Biblioteka Diecezjalna w Sandomierzu}
!!!ONB-nifc: UWAGA: części Requiem: Requiem, Dies irae, Offertorium, Sanctus, Benedictus, Agnus, Lux aeterna
!!!AIN: 1 alto 1 empty 1 organ 1 tenor 2 violn 1 vox
!!!key:
**kern	**fba	**kern	**dynam	**kern	**dynam	**kern	**text	**kern	**text	**kern	**text	**kern	**text
*part7	*	*part6	*part6	*part5	*part5	*part4	*part4	*part3	*part3	*part2	*part2	*part1	*part1
*	*	*group2	*	*group2	*	*group1	*	*group1	*	*group1	*	*group1	*
*staff7	*	*staff6	*	*staff5	*	*staff4	*staff4	*staff3	*staff3	*staff2	*staff2	*staff1	*staff1
*Iorgan	*	*Ivioln	*	*Ivioln	*	*Iempty	*	*Itenor	*	*Ialto	*	*Ivox	*
*I"Organo.	*	*I"Violino Secundo_	*	*I"Violino Primo	*	*I"Baſso.	*	*I"Tenore=	*	*I"Alto=	*	*I"Canto:	*
*I'org	*	*I'vl 2	*	*I'vl 1	*	*I'B	*	*I'T	*	*I'A	*	*I'C	*
*clefF4	*	*clefG2	*	*clefG2	*	*clefF4	*	*clefC4	*	*clefC3	*	*clefC1	*
*k[e-a-b-]	*	*k[b-e-a-]	*	*k[b-e-a-]	*	*k[a-b-e-]	*	*k[e-a-b-]	*	*k[a-e-b-]	*	*k[b-e-a-]	*
*E-:	*	*E-:	*	*E-:	*	*E-:	*	*E-:	*	*E-:	*	*E-:	*
*M3/4	*	*M3/4	*	*M3/4	*	*M3/4	*	*M3/4	*	*M3/4	*	*M3/4	*
=1	=1	=1	=1	=1	=1	=1	=1	=1	=1	=1	=1	=1	=1
!LO:TX:a:t=P:problem=bemole E- A- CC-(omyłkowo)	!	!LO:TX:b:i:t=Agnus.	!	!LO:TX:b:t=Agnus	!	!LO:TX:a:t=Tarde	!	!	!	!	!	!	!
!LO:TX:b:i:t=Agnus Dei=	!	!LO:TX:a:t=Tarde.	!	!LO:TX:a:t=Tarde.	!	!LO:TX:a:t=P:problem=bemol A-	!	!	!	!	!	!	!
!LO:TX:a:i:t=Tutti.	!	!LO:TX:a:t=P:problem=mixed beam	!	!LO:TX:a:t=P:problem=mixed beam	!	!LO:TX:a:i:t=Agnus.	!	!LO:TX:a:t=Tarde-	!	!LO:TX:a:t=Tarde=	!	!LO:TX:a:t=Tarde.	!
4E-\	.	8ee-\L|	.	8ee-\L|	.	4E-\	A-	4B-\	A-	4g\	A-	4ee-\	A-
.	.	8e-/|	.	8e-/|	.	.	.	.	.	.	.	.	.
4E-\	.	8g/|	.	8g/|	.	4E-\	-gnus	4B-\	-gnus.	4g\	-gnus.	4ee-\	-gnus
.	.	8b-/J|	.	8b-/J|	.	.	.	.	.	.	.	.	.
4E-\	.	8ee-\L|	.	8ee-\L|	.	4r	.	4r	.	4r	.	4r	.
.	.	8gg\J|	.	8gg\J|	.	.	.	.	.	.	.	.	.
=2	=2	=2	=2	=2	=2	=2	=2	=2	=2	=2	=2	=2	=2
!	!	!LO:TX:a:t=P:problem=mixed beam	!	!LO:TX:a:t=P:problem=mixed beam	!	!	!	!	!	!	!	!	!
4BB-/	.	8ff\L|	.	8ff\L|	.	4BB-/	De-	4B-\	De-	4f\	De-	4dd\	De-
.	.	8B-'/	.	8B-'/	.	.	.	.	.	.	.	.	.
4BB-/	.	8d'/	.	8d'/	.	4BB-/	-i	4B-\	-i	4f\	-i	4dd\	-i
.	.	8f'/	.	8f'/	.	.	.	.	.	.	.	.	.
4r	.	8a-'/	.	8a-'/	.	4r	.	4r	.	4r	.	4r	.
.	.	8f'/J	.	8f'/J	.	.	.	.	.	.	.	.	.
=3	=3	=3	=3	=3	=3	=3	=3	=3	=3	=3	=3	=3	=3
4E-\	.	4g/	.	4ee-\	.	4E-\	De-	4B-\	De-	4g\	De-	4ee-\	De-
4E-\	.	(8g/L	.	8b-/L	.	4E-\	-i	4B-\	-i	(8g\L	-i	(8b-\L	-i
.	.	8e-/)	.	(8g/	.	.	.	.	.	8e-\J)	.	8g\J)	.
!	!	!	!	!	!	!	!	!	!	!LO:TX:b:t=P:problem=pokreślony tekst	!	!	!
4E-\	.	(8a-/	.	8cc/	.	4E-\	qui	4B-\	qui	(8a-\L	qui	(8cc\L	qui
.	.	8g/J)	.	8b-/J)	.	.	.	.	.	8g\J)	.	8b-\J)	.
=4	=4	=4	=4	=4	=4	=4	=4	=4	=4	=4	=4	=4	=4
4BB-/	.	4f/	.	(16b-/LL	.	4BB-/	tol-	4B-\	tol-	4f\	tol-	4a-\	tol-
.	.	.	.	16a-/	.	.	.	.	.	.	.	.	.
.	.	.	.	16g/	.	.	.	.	.	.	.	.	.
.	.	.	.	16a-/JJ)	.	.	.	.	.	.	.	.	.
4E-\	.	4e-/	.	4g/	.	4E-\	-lis	4B-\	-lis	4e-\	-lis	4g\	-lis
4r	.	4r	.	4r	.	4r	.	4r	.	4r	.	4r	.
=5	=5	=5	=5	=5	=5	=5	=5	=5	=5	=5	=5	=5	=5
*	*	*	*	*2\right	*	*	*	*	*	*	*	*	*
*	*	*tremolo	*	*tremolo	*	*	*	*	*	*	*	*	*
4A-\	6_	8a-/L	.	8ff\L|	.	4A-\	pec-	4c\	tol-	4a-\	tol-	4ff\	tol-
.	.	8a-/	.	8ff\	.	.	.	.	.	.	.	.	.
4A-\	.	8a-/	.	8ff\	.	4A-\	-ca-	4c\	-lis	4a-\	-lis	4ff\	-lis
.	.	8a-/J	.	8ff\J	.	.	.	.	.	.	.	.	.
*	*	*Xtremolo	*	*Xtremolo	*	*	*	*	*	*	*	*	*
4A-\	5	8g/L	.	8ee-\L|	.	4A-\	-ta	4c\	pec-	4g\	pec-	4ee-\	pec-
.	.	8g/J	.	8ee-\J|	.	.	.	.	.	.	.	.	.
!	!	!LO:LB:g=original	!	!	!	!	!	!	!	!	!	!	!
=6	=6	=6	=6	=6	=6	=6	=6	=6	=6	=6	=6	=6	=6
4B-\	.	4f/	.	(16dd\LL	.	4B-\	mun-	4B-\	-ca-	4f\	-ca-	4dd\	-ca-
.	.	.	.	16ff\	.	.	.	.	.	.	.	.	.
.	.	.	.	16dd\	.	.	.	.	.	.	.	.	.
.	.	.	.	16b-\JJ	.	.	.	.	.	.	.	.	.
4E-\	.	4g/	.	4ee-\)	.	4E-\	-di	4B-\	-ta	4g\	-ta	4ee-\	-ta
4r	.	4r	.	4r	.	4r	.	4r	.	4r	.	4r	.
=7	=7	=7	=7	=7	=7	=7	=7	=7	=7	=7	=7	=7	=7
!	!	!LO:TX:a:t=P:problem=mixed beam	!	!	!	!	!	!	!	!	!	!	!
4E-\	5 3	8g'/L	.	8b-\L|	.	4E-\	pec-	4B-\	pec-	4g\	pec-	4b-\	pec-
.	.	8gg'\	.	8bb-\|	.	.	.	.	.	.	.	.	.
4E-\	4 2	(8gg\	.	(8bb-\	.	4E-\	-ca-	4B-\	-ca-	(8g\L	-ca-	(8b-\L	-ca-
.	.	8ff\)	.	8aa-\	.	.	.	.	.	8f\J)	.	8a-\J)	.
4E-\	3 1	(8ff\	.	8aa-\	.	4E-\	-ta	4B-\	-ta	(8f\L	-ta	(8a-\L	-ta
.	.	8ee-\J)	.	8gg\J)	.	.	.	.	.	8e-\J)	.	8g\J)	.
=8	=8	=8	=8	=8	=8	=8	=8	=8	=8	=8	=8	=8	=8
4B-\	4	4ee-\	.	4gg\	.	4B-\	mun-	4B-\	mun-	4e-\	mun-	4g/	mun-
4BB-/	3	4dd\	.	4ff\	.	4BB-/	-di,	4B-\	-di	4d\	-di	4f/	-di
4r	.	4r	.	4r	.	4r	.	4r	.	4r	.	4r	.
!	!	!	!	!	!	!	!	!	!	!	!	!LO:LB:g=original	!
=9	=9	=9	=9	=9	=9	=9	=9	=9	=9	=9	=9	=9	=9
*	*	*	*	*2\right	*	*	*	*2\right	*	*2\right	*	*2\right	*
*	*	*tremolo	*	*tremolo	*	*	*	*	*	*	*	*	*
!	!	!	!LO:DY:a	!	!LO:DY:a	!	!	!	!	!	!	!	!
4BB-/	.	8d/L	f	8b-\L	f	2BB-/	Do-	2B-\	Do-	2d\	Do-	2b-\	Do-
.	.	8d/	.	8b-\	.	.	.	.	.	.	.	.	.
4r	.	8d/	.	8b-\	.	.	.	.	.	.	.	.	.
.	.	8d/	.	8b-\J	.	.	.	.	.	.	.	.	.
*	*	*	*	*Xtremolo	*	*	*	*	*	*	*	*	*
!	!	!	!LO:DY:a	!	!LO:DY:a	!	!	!	!	!	!	!	!
4r	.	8d/	p	8b-\L	p	4BB-/	-na	4B-\	-na	4d\	-na	4b-\	-na
.	.	8d/J	.	8b-\J	.	.	.	.	.	.	.	.	.
!	!	!	!	!	!	!	!	!LO:LB:g=original	!	!	!	!	!
=10	=10	=10	=10	=10	=10	=10	=10	=10	=10	=10	=10	=10	=10
*	*	*	*	*tremolo	*	*	*	*	*	*	*	*	*
!	!	!	!LO:DY:a	!	!LO:DY:a	!	!	!	!	!	!	!	!
4BB-/	.	8e-/L	f	8cc\L	f	2BB-/	e-	2An/	e-	2e-\	e-	2cc\	e-
.	.	8e-/	.	8cc\	.	.	.	.	.	.	.	.	.
4r	.	8e-/	.	8cc\	.	.	.	.	.	.	.	.	.
.	.	8e-/	.	8cc\J	.	.	.	.	.	.	.	.	.
*	*	*	*	*Xtremolo	*	*	*	*	*	*	*	*	*
!	!	!	!LO:DY:a	!	!LO:DY:a	!	!	!	!	!	!	!	!
4r	.	8e-/	p	8cc\L	p	4BB-/	-is	4A/	-is	4e-\	-is	4cc\	-is
.	.	8e-/J	.	8cc\J	.	.	.	.	.	.	.	.	.
!	!	!	!	!LO:LB:g=original	!	!LO:LB:g=original	!	!	!	!LO:LB:g=original	!	!	!
=11	=11	=11	=11	=11	=11	=11	=11	=11	=11	=11	=11	=11	=11
*	*	*	*	*tremolo	*	*	*	*	*	*	*	*	*
!	!	!	!LO:DY:a	!	!LO:DY:a	!	!	!	!	!	!	!	!
4BB-/	.	8f/L	f	8dd\L	f	2BB-/	Re-	2A-X/	Re-	2f\	Re-	2dd\	Re-
.	.	8f/	.	8dd\	.	.	.	.	.	.	.	.	.
4r	.	8f/	.	8dd\	.	.	.	.	.	.	.	.	.
.	.	8f/	.	8dd\J	.	.	.	.	.	.	.	.	.
*	*	*	*	*Xtremolo	*	*	*	*	*	*	*	*	*
!	!	!	!LO:DY:a	!	!LO:DY:a	!	!	!	!	!	!	!	!
4r	.	8f/	p	8dd\L	p	4BB-/	-qui-	4A-/	-qui-	4f\	-qui-	4dd\	-qui-
.	.	8f/J	.	8dd\J	.	.	.	.	.	.	.	.	.
*	*	*Xtremolo	*	*	*	*	*	*	*	*	*	*	*
!LO:LB:g=original	!	!	!	!	!	!	!	!	!	!	!	!	!
=12	=12	=12	=12	=12	=12	=12	=12	=12	=12	=12	=12	=12	=12
4E-\	.	8r	.	8r	.	4E-\	-em	4G/	-em	4e-\	-em	4ee-\	-em
.	.	8ee-\L|	.	8ee-'\L	.	.	.	.	.	.	.	.	.
4r	.	(8gg\	.	(8gg\	.	4r	.	4r	.	4r	.	4r	.
.	.	8b-\)	.	8b-\	.	.	.	.	.	.	.	.	.
4r	.	(8ee-\	.	8ee-\	.	4r	.	4r	.	4r	.	4r	.
.	.	8g\J)	.	8g\J)	.	.	.	.	.	.	.	.	.
=13	=13	=13	=13	=13	=13	=13	=13	=13	=13	=13	=13	=13	=13
!LO:TX:a:t=1	!	!LO:TX:a:t=P:problem=mixed beam	!	!LO:TX:a:t=P:problem=mixed beam	!	!LO:TX:a:t=1	!	!LO:TX:a:t=1	!	!LO:TX:a:t=1	!	!LO:TX:a:t=1	!
2.r	.	8b-\L	.	8b-\L	.	2.r	.	2.r	.	2.r	.	2.r	.
.	.	8B-/J	.	8B-/J	.	.	.	.	.	.	.	.	.
.	.	4e-/	.	4e-/	.	.	.	.	.	.	.	.	.
.	.	4r	.	4r	.	.	.	.	.	.	.	.	.
=14	=14	=14	=14	=14	=14	=14	=14	=14	=14	=14	=14	=14	=14
*	*	*tremolo	*	*tremolo	*	*2\right	*	*	*	*	*	*	*
!	!	!	!LO:DY:a	!	!LO:DY:a	!	!	!	!	!	!	!	!
4E-\	.	8e-/L	f	8ee-\L	f	2E-\	Do-	2G/	Do-	2d\	Do-	2ee-\	Do-
.	.	8e-/	.	8ee-\	.	.	.	.	.	.	.	.	.
4r	.	8e-/	.	8ee-\	.	.	.	.	.	.	.	.	.
.	.	8e-/	.	8ee-\J	.	.	.	.	.	.	.	.	.
*	*	*	*	*Xtremolo	*	*	*	*	*	*	*	*	*
!	!	!	!LO:DY:a	!	!LO:DY:a	!	!	!	!	!	!	!	!
4r	.	8e-/	p	8ee-\L	p	4E-\	-na	4G/	-na	4e-\	-na	4ee-\	-na
.	.	8e-/J	.	8ee-\J	.	.	.	.	.	.	.	.	.
=15	=15	=15	=15	=15	=15	=15	=15	=15	=15	=15	=15	=15	=15
*	*	*	*	*tremolo	*	*	*	*	*	*	*	*	*
!	!	!	!LO:DY:a	!	!LO:DY:a	!	!	!	!	!	!	!	!
4E-\	.	8f/L	f	8dd\L	f	2E-\	e-	2A-/	e-	2f\	e-	2dd\	e-
.	.	8f/	.	8dd\	.	.	.	.	.	.	.	.	.
4r	.	8f/	.	8dd\	.	.	.	.	.	.	.	.	.
.	.	8f/	.	8dd\J	.	.	.	.	.	.	.	.	.
*	*	*	*	*Xtremolo	*	*	*	*	*	*	*	*	*
!	!	!	!LO:DY:a	!	!LO:DY:a	!	!	!	!	!	!	!	!
4r	.	8f/	p	8dd\L	p	4E-\	-is	4A-/	-is	4f\	-is	4dd\	-is
.	.	8f/J	.	8dd\J	.	.	.	.	.	.	.	.	.
=16	=16	=16	=16	=16	=16	=16	=16	=16	=16	=16	=16	=16	=16
*	*	*	*	*tremolo	*	*	*	*	*	*	*	*	*
!	!	!	!LO:DY:a	!	!LO:DY:a	!	!	!	!	!	!	!	!
4E-\	.	8g/L	f	8dd-X\L	f	2E-\	Re-	2B-\	Re-	2g\	Re-	2dd-X\	Re-
.	.	8g/	.	8dd-X\	.	.	.	.	.	.	.	.	.
4r	.	8g/	.	8dd-X\	.	.	.	.	.	.	.	.	.
.	.	8g/	.	8dd-X\J	.	.	.	.	.	.	.	.	.
*	*	*	*	*Xtremolo	*	*	*	*	*	*	*	*	*
!	!	!	!LO:DY:a	!	!LO:DY:a	!	!	!	!	!	!	!	!
4r	.	8g/	p	8dd-\L	p	4E-\	-qui-	4B-\	-qui-	4g\	-qui-	4dd-\	-qui-
.	.	8g/J	.	8dd-\J	.	.	.	.	.	.	.	.	.
*	*	*Xtremolo	*	*	*	*	*	*	*	*	*	*	*
=17	=17	=17	=17	=17	=17	=17	=17	=17	=17	=17	=17	=17	=17
4AA-/	.	4a-/	.	4cc\	.	4AA-/	-em	4A-\	-em	4a-\	-em	4cc\	-em
4r	.	4a-/	.	4ff\	.	4AA-/	Sem-	4c\	Sem-	4a-\	Sem-	4ff\	Sem-
4AAn/	.	4g/	.	4ee-\	.	4AAn/	-pi-	4c\	-pi-	4g\	-pi-	4ee-\	-pi-
=18	=18	=18	=18	=18	=18	=18	=18	=18	=18	=18	=18	=18	=18
4BB-/	6 4	4g/	.	4ee-\	.	4BB-/	-ter-	4B-\	-ter-	4g\	-ter-	4ee-\	-ter-
4BB-/	5 3	8f/L	.	8dd\L|	.	4BB-/	-nam	4B-\	-nam	4f\	-nam,	4dd\	-nam
.	.	8b-/	.	8b-\J|	.	.	.	.	.	.	.	.	.
4r	.	8f/	.	8f/L|	.	4r	.	4r	.	4r	.	4r	.
.	.	8d/J	.	8d/J|	.	.	.	.	.	.	.	.	.
=19	=19	=19	=19	=19	=19	=19	=19	=19	=19	=19	=19	=19	=19
*2\right	*	*	*	*	*	*	*	*	*	*	*	*	*
*tremolo	*	*tremolo	*	*	*	*	*	*	*	*	*	*	*
!	!	!	!	!LO:TX:a:t=P:problem=mixed beam	!	!	!	!	!	!	!	!	!
8A-\L	4 2	8f/L	.	8B-/L	.	2A-\	Do-	2B-\	Do-	2f\	Do-	2dd\	Do-
8A-\	.	8f/	.	8aa-\J	.	.	.	.	.	.	.	.	.
8A-\	.	8f/	.	(16gg\LL	.	.	.	.	.	.	.	.	.
.	.	.	.	16ff\	.	.	.	.	.	.	.	.	.
8A-\J	.	8f/J	.	16ee-\	.	.	.	.	.	.	.	.	.
.	.	.	.	16dd\JJ	.	.	.	.	.	.	.	.	.
*Xtremolo	*	*Xtremolo	*	*	*	*	*	*	*	*	*	*	*
8G\L	6_	8g/L	.	4ee-\)	.	8A-\L	-na	4B-\	-na	4g\	-na	4ee-\	-na
8G\J	.	8g/J	.	.	.	8G\J	.	.	.	.	.	.	.
=20	=20	=20	=20	=20	=20	=20	=20	=20	=20	=20	=20	=20	=20
*tremolo	*	*tremolo	*	*	*	*	*	*	*	*	*	*	*
8A-\L	4 2	8f/L	.	8b-\L	.	2A-\	e-	2B-\	e-	2f\	e-	2dd\	e-
8A-\	.	8f/	.	8aa-\J	.	.	.	.	.	.	.	.	.
8A-\	.	8f/	.	16gg\LL	.	.	.	.	.	.	.	.	.
.	.	.	.	(16ff\	.	.	.	.	.	.	.	.	.
8A-\J	.	8f/J	.	16ee-\	.	.	.	.	.	.	.	.	.
.	.	.	.	16dd\JJ)	.	.	.	.	.	.	.	.	.
*Xtremolo	*	*Xtremolo	*	*	*	*	*	*	*	*	*	*	*
8G\L	6_	8g/L	.	8ee-\L	.	4G\	-is	4B-\	-is	4g\	-is	4ee-\	-is
8G\J	.	8g/J	.	8b-\J	.	.	.	.	.	.	.	.	.
!	!	!	!	!	!	!	!	!	!	!	!	!LO:LB:g=original	!
=21	=21	=21	=21	=21	=21	=21	=21	=21	=21	=21	=21	=21	=21
4A-\	-	8a-/L|	.	8cc\L	.	8A-\	e-	(4c\	Re-	8a-\L	Re-	8cc\L	Re-
.	.	(16g/L	.	16b-\L	.	8A-\	-is	.	.	16g\L	.	(16b-\L	.
.	.	16f/JJ)	.	16a-\JJ	.	.	.	.	.	16f\JJ	.	16a-\JJ)	.
!	!	!	!	!	!	!	!	!	!	!LO:SIC:v:l:s=-qui-	!	!	!
4B-\	6 4	4e-/	.	4g/	.	4B-\	Re-	4B-\	.	4.e-\	-quie-	4g/	.
4BB-/	5 3	4d/	.	4f/	.	4BB-/	-qui-	4B-\)	-qui-	.	.	4f/	-qui-
.	.	.	.	.	.	.	.	.	.	8d\	.	.	.
!	!	!	!	!LO:LB:g=original	!	!	!	!	!	!	!	!	!
=22	=22	=22	=22	=22	=22	=22	=22	=22	=22	=22	=22	=22	=22
!	!	!	!	!LO:TX:a:t=P:problem=mixed beam	!	!	!	!	!	!	!	!	!
4E-\	.	8e-/L	.	8e-'/L	.	4E-\	-em	4B-\	-em	4e-\	-em	4e-/	-em
.	.	8g/J	.	8ee-'\	.	.	.	.	.	.	.	.	.
*	*	*tremolo	*	*	*	*	*	*	*	*	*	*	*
!	!	!	!	!	!	!	!	!LO:LB:g=original	!	!	!	!	!
4r	.	8g/L	.	8ee-'\	.	4E-\	Sem-	4B-\	Sem-	4g\	Sem-	4ee-\	Sem-
.	.	8g/	.	8ee-'\	.	.	.	.	.	.	.	.	.
4r	.	8g/	.	8ee-'\	.	4E-\	-pi-	4B-\	-pi-	4g\	-pi-	4ee-\	-pi-
.	.	8g/J	.	8ee-'\J	.	.	.	.	.	.	.	.	.
!	!	!	!	!	!	!LO:LB:g=original	!	!	!	!LO:LB:g=original	!	!	!
=23	=23	=23	=23	=23	=23	=23	=23	=23	=23	=23	=23	=23	=23
*	*	*	*	*tremolo	*	*	*	*	*	*	*	*	*
!	!	!	!	!	!LO:DY:a:t=f	!	!	!	!	!	!	!	!
4BB-/	7	8a-/L	.	8dd\L	f	2.BB-/	-ter-	2.B-\	-ter-	2.a-\	-ter-	2.dd\	-ter-
.	.	8a-/	.	8dd\	.	.	.	.	.	.	.	.	.
4r	.	8a-/	.	8dd\	.	.	.	.	.	.	.	.	.
.	.	8a-/	.	8dd\J	.	.	.	.	.	.	.	.	.
*	*	*	*	*Xtremolo	*	*	*	*	*	*	*	*	*
!	!	!	!	!	!LO:DY:a	!	!	!	!	!	!	!	!
4r	.	8a-/	.	8dd\L	p	.	.	.	.	.	.	.	.
.	.	8a-/J	.	8dd\J	.	.	.	.	.	.	.	.	.
=24	=24	=24	=24	=24	=24	=24	=24	=24	=24	=24	=24	=24	=24
*	*	*	*	*tremolo	*	*	*	*	*	*	*	*	*
!	!	!	!	!	!LO:DY:a	!	!	!	!	!	!	!	!
4E-\	.	8g/L	.	8ee-\L	f	4E-\	-nam	4B-\	-nam	4g\	-nam	4ee-\	-nam
.	.	8g/	.	8ee-\	.	.	.	.	.	.	.	.	.
4r	.	8g/	.	8ee-\	.	4E-\	Sem-	4B-\	Sem-	4g\	Sem-	4ee-\	Sem-
.	.	8g/	.	8ee-\J	.	.	.	.	.	.	.	.	.
*	*	*	*	*Xtremolo	*	*	*	*	*	*	*	*	*
!	!	!	!	!	!LO:DY:a	!	!	!	!	!	!	!	!
4r	.	8g/	.	8ee-\L	p	4E-\	-pi-	4B-\	-pi-	4g\	-pi-	4ee-\	-pi-
.	.	8g/J	.	8ee-\J	.	.	.	.	.	.	.	.	.
=25	=25	=25	=25	=25	=25	=25	=25	=25	=25	=25	=25	=25	=25
*	*	*	*	*tremolo	*	*	*	*	*	*	*	*	*
!	!	!	!	!	!LO:DY:a	!	!	!	!	!	!	!	!
4BB-/	.	8a-/L	.	8dd\L	f	2.BB-/	-ter-	2.B-\	-ter-	2.a-\	-ter-	2.dd\	-ter-
.	.	8a-/	.	8dd\	.	.	.	.	.	.	.	.	.
4r	.	8a-/	.	8dd\	.	.	.	.	.	.	.	.	.
.	.	8a-/	.	8dd\J	.	.	.	.	.	.	.	.	.
*	*	*	*	*Xtremolo	*	*	*	*	*	*	*	*	*
!	!	!	!	!	!LO:DY:a	!	!	!	!	!	!	!	!
4r	.	8a-/	.	8dd\L	p	.	.	.	.	.	.	.	.
.	.	8a-/J	.	8dd\J	.	.	.	.	.	.	.	.	.
*	*	*Xtremolo	*	*	*	*	*	*	*	*	*	*	*
!	!	!LO:LB:g=original	!	!	!	!	!	!	!	!	!	!	!
=26	=26	=26	=26	=26	=26	=26	=26	=26	=26	=26	=26	=26	=26
2.E-\	.	2g/	.	2ee-\	.	2.E-\	-nam	2.B-\	-nam	2.g\	-nam	2.ee-\	-nam
!	!	!	!	!	!	!LO:TX:a:t=26	!	!	!	!	!	!	!
.	.	4r	.	4r	.	.	.	.	.	.	.	.	.
==	==	==	==	==	==	==	==	==	==	==	==	==	==
*-	*-	*-	*-	*-	*-	*-	*-	*-	*-	*-	*-	*-	*-
!!!system-decoration: [g1][g2]s7
!!!RDF**dynam: p = "p."
!!!RDF**dynam: f = "f."
!!!RDF**kern: | = vertical stroke
!!!ENC: Zofia Niedbalska
!!!END: 2020-12-10
!!!ENC: Andrzej Borzym
!!!END: 2020-06-03
!!!YEC: Copyright 2022 Narodowy Instytut Fryderyka Chopina (https://polishscores.org)
!!!YEM: License CC-BY-4.0 (https://creativecommons.org/licenses/by/4.0)
